X: 18757
T: Ievan Polkka
R: polka
M: 2/4
K: Bminor
|:B2 Bc|dB Bd|cA Ac|d/c/B/A/ d/c/B/A/|
B2 Bc|dB Bd|1 ef/e/ dc|B2 f/e/d/c/:|2 ef/e/ dc|B2 Bd||
|:fd df|ec cd|ef/e/ dc|B2 =f^f|
gd df|ec cd|ef/e/ dc|1 B2 Bd:|2 B2 f/e/d/c/||

